X:542
T: Dakai sangmen changxinjing
N: C1960
O: China,Jiangxi Guixi
S: IV, 200]
R: Shange]
M: 2/4
L: 1/16
K: C
c2G2A2G2 | c2G2Acd2- | d8 |
c2d2A2G2 | c2A2G2G2- | G4G4 |
D2G2A2G2 | d2c2A2d2- | d8 |
e2dcA2GA | c2A2G4- | G4G4

@@@ Tune index: 7097
